src/main/resources/buttons/CONNECT.svg

<svg xmlns="http://www.w3.org/2000/svg" width="16" height="16" fill="currentColor" class="bi bi-link-45deg" viewBox="0 0 16 16">
  <path d="M4.715 6.542 3.343 7.914a3 3 0 1 0 4.243 4.243l1.828-1.829A3 3 0 0 0 8.586 5.5L8 6.086a1.002 1.002 0 0 0-.154.199 2 2 0 0 1 .861 3.337L6.88 11.45a2 2 0 1 1-2.83-2.83l.793-.792a4.018 4.018 0 0 1-.128-1.287z"/>
  <path d="M6.586 4.672A3 3 0 0 0 7.414 9.5l.775-.776a2 2 0 0 1-.896-3.346L9.12 3.55a2 2 0 1 1 2.83 2.83l-.793.792c.112.42.155.855.128 1.287l1.372-1.372a3 3 0 1 0-4.243-4.243L6.586 4.672z"/>
</svg>

<?xml version="1.0" encoding="UTF-8" standalone="no"?>
<svg
   width="512"
   height="512"
   class="bi bi-link-45deg"
   viewBox="0 0 16 16"
   version="1.1"
   id="svg6"
   sodipodi:docname="CONNECT.svg"
   inkscape:version="1.2.2 (732a01da63, 2022-12-09)"
   xmlns:inkscape="http://www.inkscape.org/namespaces/inkscape"
   xmlns:sodipodi="http://sodipodi.sourceforge.net/DTD/sodipodi-0.dtd"
   xmlns="http://www.w3.org/2000/svg"
   xmlns:svg="http://www.w3.org/2000/svg">
  <defs
     id="defs10" />
  <sodipodi:namedview
     id="namedview8"
     pagecolor="#505050"
     bordercolor="#eeeeee"
     borderopacity="1"
     inkscape:showpageshadow="0"
     inkscape:pageopacity="0"
     inkscape:pagecheckerboard="0"
     inkscape:deskcolor="#505050"
     showgrid="false"
     inkscape:zoom="14.75"
     inkscape:cx="8"
     inkscape:cy="8"
     inkscape:window-width="2560"
     inkscape:window-height="1494"
     inkscape:window-x="-11"
     inkscape:window-y="-11"
     inkscape:window-maximized="1"
     inkscape:current-layer="svg6" />
  <path
     d="M 4.715,6.542 3.343,7.914 a 3.0002541,3.0002541 0 1 0 4.243,4.243 L 9.414,10.328 A 3,3 0 0 0 8.586,5.5 L 8,6.086 A 1.002,1.002 0 0 0 7.846,6.285 2,2 0 0 1 8.707,9.622 L 6.88,11.45 A 2.0011122,2.0011122 0 1 1 4.05,8.62 L 4.843,7.828 A 4.018,4.018 0 0 1 4.715,6.541 Z"
     id="path2" />
  <path
     d="M 6.586,4.672 A 3,3 0 0 0 7.414,9.5 L 8.189,8.724 A 2,2 0 0 1 7.293,5.378 L 9.12,3.55 a 2.0011122,2.0011122 0 1 1 2.83,2.83 l -0.793,0.792 c 0.112,0.42 0.155,0.855 0.128,1.287 L 12.657,7.087 A 3.0002541,3.0002541 0 1 0 8.414,2.844 Z"
     id="path4" />
</svg>
